X:1
T:Grays-Inn Jigg.
L:1/8
M:6/4
I:linebreak $
K:D
V:1 treble 
V:1
 ag | f3 e d2 f3 g a2 | f3 e d2 f3 g a2 | b6- b4 B2 | c2 d2 e2 F4 F2 | G3 A B2 A2 B2 c2 | d6- d4 :: %7
 ag |$ f3 e d2 f3 g a2 | f3 e d2 B3 c d2 | e6- e4 A2 | B2 c2 d2 F4 F2 | G3 A B2 A2 B2 c2 | %13
 d6- d4 :| %14
